svg/other/pot_fill.svg

<?xml version="1.0" encoding="UTF-8"?>
<svg width="24px" height="24px" viewBox="0 0 24 24" version="1.1" xmlns="http://www.w3.org/2000/svg" xmlns:xlink="http://www.w3.org/1999/xlink">
    <title>pot_fill</title>
    <g id="Icon" stroke="none" stroke-width="1" fill="none" fill-rule="evenodd">
        <g id="Other" transform="translate(-912.000000, -48.000000)">
            <g id="pot_fill" transform="translate(912.000000, 48.000000)">
                <path d="M24,0 L24,24 L0,24 L0,0 L24,0 Z M12.5935,23.2578 L12.5819,23.2595 L12.5109,23.295 L12.4919,23.2987 L12.4767,23.295 L12.4057,23.2595 C12.3958,23.2564 12.387,23.259 12.3821,23.2649 L12.378,23.2758 L12.3609,23.7031 L12.3659,23.7235 L12.3769,23.7357 L12.4805,23.8097 L12.4953,23.8136 L12.5071,23.8097 L12.6107,23.7357 L12.6233,23.7197 L12.6267,23.7031 L12.6096,23.2758 C12.6076,23.2657 12.601,23.2593 12.5935,23.2578 Z M12.8584,23.1453 L12.8445,23.1473 L12.6598,23.2397 L12.6499,23.2499 L12.6472,23.2611 L12.6651,23.6906 L12.6699,23.7034 L12.6784,23.7105 L12.8793,23.8032 C12.8914,23.8069 12.9022,23.803 12.9078,23.7952 L12.9118,23.7812 L12.8777,23.1665 C12.8753,23.1546 12.8674,23.147 12.8584,23.1453 Z M12.143,23.1473 C12.1332,23.1424 12.1222,23.1453 12.1156,23.1526 L12.1099,23.1665 L12.0758,23.7812 C12.0751,23.7927 12.0828,23.8019 12.0926,23.8046 L12.1083,23.8032 L12.3092,23.7105 L12.3186,23.7024 L12.3225,23.6906 L12.3404,23.2611 L12.3372,23.2485 L12.3278,23.2397 L12.143,23.1473 Z" id="MingCute" fill-rule="nonzero"></path>
                <path d="M5.90204,7.43779 C5.57402,7.62718 5.38115,7.98564 5.40384,8.36373 L5.47083,9.47976 C5.48513,9.71804 5.5842,9.94334 5.75013,10.115 L6.61815,11.0127 L3.82985,10.613 C3.32877,10.5412 2.85305,10.8551 2.72204,11.3441 L2.53903,12.0271 C2.42762,12.4428 2.59476,12.8832 2.95396,13.1204 L9.86558,17.6838 L10.67,19.4663 C11.1567,20.5448 12.4682,20.9673 13.493,20.3757 L19.395,16.9681 C20.404,16.3856 20.7035,15.0674 20.0453,14.1062 L18.3433,11.6204 C19.7388,10.2149 20.0823,7.9987 19.0444,6.20099 C17.8871,4.19656 15.4206,3.41926 13.3487,4.32559 L13.2893,4.23887 C12.9941,3.80771 12.4168,3.67652 11.9642,3.93779 L5.90204,7.43779 Z M14.5165,6.03121 L17.1751,9.91416 C17.7327,9.1404 17.8201,8.08054 17.3123,7.20099 C16.7369,6.20426 15.5787,5.75371 14.5165,6.03121 Z M8.32494,14.27 L7.84618,13.2091 L6.4054,13.0026 L8.32494,14.27 Z" id="形状" fill="#09244B"></path>
            </g>
        </g>
    </g>
</svg>

<svg xmlns="http://www.w3.org/2000/svg" width="24" height="24"><g fill="none" fill-rule="evenodd"><path d="M24 0v24H0V0h24ZM12.594 23.258l-.012.002-.071.035-.02.004-.014-.004-.071-.036c-.01-.003-.019 0-.024.006l-.004.01-.017.428.005.02.01.013.104.074.015.004.012-.004.104-.074.012-.016.004-.017-.017-.427c-.002-.01-.009-.017-.016-.018Zm.264-.113-.014.002-.184.093-.01.01-.003.011.018.43.005.012.008.008.201.092c.012.004.023 0 .029-.008l.004-.014-.034-.614c-.003-.012-.01-.02-.02-.022Zm-.715.002a.023.023 0 0 0-.027.006l-.006.014-.034.614c0 .012.007.02.017.024l.015-.002.201-.093.01-.008.003-.011.018-.43-.003-.012-.01-.01-.184-.092Z"/><path fill="#09244B" d="M5.902 7.438a1 1 0 0 0-.498.926L5.47 9.48a1 1 0 0 0 .28.635l.867.898-2.788-.4a1 1 0 0 0-1.108.731l-.183.683a1 1 0 0 0 .415 1.093l6.912 4.564.804 1.782a2 2 0 0 0 2.823.91l5.902-3.408a2 2 0 0 0 .65-2.862l-1.702-2.486a4.502 4.502 0 0 0-4.994-7.294l-.06-.087a1 1 0 0 0-1.325-.301l-6.062 3.5Zm8.615-1.407 2.658 3.883a2.5 2.5 0 0 0-2.658-3.883ZM8.325 14.27l-.479-1.06-1.44-.207 1.919 1.267Z"/></g></svg>
